public/images/logos/html.svg

<svg width="28" height="28" viewBox="0 0 28 28" fill="none" xmlns="http://www.w3.org/2000/svg">
<g clip-path="url(#clip0_123_4)">
<path d="M5.47842 23.7207L3.5835 2.45166H24.4162L22.5212 23.7092L13.9826 26.075" fill="#E44D26"/>
<path d="M14 24.2663V4.19739H22.5157L20.8906 22.3427" fill="#F16529"/>
<path d="M7.4541 6.79858H14.0002V9.40554H10.3137L10.5549 12.0757H14.0002V14.6769H8.16613M8.28098 15.9861H10.8994L11.0832 18.0705L14.0002 18.8514V21.5732L8.64848 20.0803" fill="#EBEBEB"/>
<path d="M20.5229 6.79858H13.9883V9.40554H20.2817M20.0463 12.0757H13.9883V14.6826H17.2039L16.8996 18.0705L13.9883 18.8514V21.5617L19.3285 20.0803" fill="white"/>
</g>
<defs>
<clipPath id="clip0_123_4">
<rect width="21" height="24.15" fill="white" transform="translate(3.5 1.92505)"/>
</clipPath>
</defs>
</svg>

<svg xmlns="http://www.w3.org/2000/svg" width="28" height="28" fill="none" xmlns:v="https://vecta.io/nano"><g clip-path="url(#A)"><path d="M5.478 23.721L3.584 2.452h20.833l-1.895 21.258-8.539 2.366" fill="#e44d26"/><path d="M14 24.266V4.197h8.516l-1.625 18.145" fill="#f16529"/><path d="M7.454 6.799H14v2.607h-3.686l.241 2.67H14v2.601H8.166m.115 1.309h2.618l.184 2.084 2.917.781v2.722L8.648 20.08" fill="#ebebeb"/><path d="M20.523 6.799h-6.535v2.607h6.293m-.235 2.67h-6.058v2.607h3.216l-.304 3.388-2.911.781v2.71l5.34-1.481" fill="#fff"/></g><defs><clipPath id="A"><path fill="#fff" transform="translate(3.5 1.925)" d="M0 0h21v24.15H0z"/></clipPath></defs></svg>
